icon-svg/bulb-group-bollard-wall-appear.svg

<svg xmlns="http://www.w3.org/2000/svg" fill="#44739e" viewBox="0 0 24 24"><path d="M10.15 8.85c0 .62-1.68 1.12-3.75 1.12s-3.75-.5-3.75-1.12V5.7c0-.18.2-.28.35-.18.6.38 1.9.71 3.4.71s2.8-.33 3.4-.71c.15-.1.35 0 .35.18zM4.41 3.43c1.2-.28 3.04-.28 4.16 0 1.13.29 1.12.77-.09 1.07-1.23.3-3.19.3-4.32 0-1.11-.3-.98-.78.25-1.07m5.24-.59c-.83-.24-1.94-.36-3.08-.36-1.12 0-2.27.12-3.16.36-.99.26-1.51.62-1.51.98v15.42c0 .3.38.6 1.14.84.86.26 2.01.4 3.19.4s2.37-.14 3.29-.4 1.38-.61 1.38-.95V3.72c0-.33-.42-.64-1.25-.88m8.5-.36c-2.25 0-3.96.91-3.96 2.11v2.17l-1.33.6c-.15.07-.25.22-.25.38v9.03c0 .23.18.42.42.42h1.15v1.6c0 1.2 1.7 2.11 3.96 2.11s3.96-.9 3.96-2.11V4.6c.01-1.21-1.7-2.12-3.95-2.12m0 17.58c-1.79 0-3.12-.68-3.12-1.28s1.34-1.28 3.12-1.28c1.79 0 3.12.68 3.12 1.28 0 .61-1.33 1.28-3.12 1.28"/></svg>

<?xml version="1.0" encoding="UTF-8"?>
<svg width="24px" fill="#44739e" height="24px" viewBox="0 0 24 24" version="1.1" xmlns="http://www.w3.org/2000/svg" xmlns:xlink="http://www.w3.org/1999/xlink">
            <path d="M10.15,8.85c0,0.62-1.68,1.12-3.75,1.12s-3.75-0.5-3.75-1.12V5.7c0-0.18,0.2-0.28,0.35-0.18 C3.6,5.9,4.9,6.23,6.4,6.23S9.2,5.9,9.8,5.52c0.15-0.1,0.35,0,0.35,0.18V8.85z M4.41,3.43c1.2-0.28,3.04-0.28,4.16,0 C9.7,3.72,9.69,4.2,8.48,4.5C7.25,4.8,5.29,4.8,4.16,4.5C3.05,4.2,3.18,3.72,4.41,3.43z M9.65,2.84C8.82,2.6,7.71,2.48,6.57,2.48 c-1.12,0-2.27,0.12-3.16,0.36C2.42,3.1,1.9,3.46,1.9,3.82v15.42c0,0.3,0.38,0.6,1.14,0.84c0.86,0.26,2.01,0.4,3.19,0.4 c1.18,0,2.37-0.14,3.29-0.4s1.38-0.61,1.38-0.95V3.72C10.9,3.39,10.48,3.08,9.65,2.84z M18.15,2.48c-2.25,0-3.96,0.91-3.96,2.11v2.17l-1.33,0.6c-0.15,0.07-0.25,0.22-0.25,0.38v9.03 c0,0.23,0.18,0.42,0.42,0.42h1.15v1.6c0,1.2,1.7,2.11,3.96,2.11S22.1,20,22.1,18.79V4.6C22.11,3.39,20.4,2.48,18.15,2.48z M18.15,20.06c-1.79,0-3.12-0.68-3.12-1.28c0-0.6,1.34-1.28,3.12-1.28c1.79,0,3.12,0.68,3.12,1.28 C21.27,19.39,19.94,20.06,18.15,20.06z"/>

</svg>
